X:1
T:Title
%%score { ( 1 2 3 ) | ( 4 5 ) }
L:1/8
Q:1/4=144
M:3/4
K:F
V:1 treble nm="Grand Piano"
V:2 treble 
V:3 treble 
V:4 bass 
V:5 bass 
V:1
 z2 z2 G2 | z2 z2 E2 | D4 z2 | [^CE]4 z2 | z2 z2 G2 | z2 z2 A2 | z2 z2 B2 | [EA]6 | z2 z2 A2 | %9
 [GB]4 z2 | z2 z2 G2 | [FA]4 z2 | [FA]4 z2 | [DG]4 z2 | [DF]4 z2 | D6 | z2 z2 D2 | D4 z2 | %18
 z2 z2 E2 | [^CE]4 z2 | z2 z2 D2 | D4 z2 | z2 z2 E2 | [^CE]4 z2 | z2 z2 G2 | z2 z2 B2 | z2 z2 B2 | %27
 z2 z2 A2 | z2 z2 G2 | z2 z2 B2 | z2 z2 B2 | z2 z2 A2 | [FA]4 z2 | z2 z2 B2 | z2 z2 G2 | [DF]4 z2 | %36
 [EA]4 z2 | z2 z2 A2 | [DF]4 z2 | D6 |] %40
V:2
 [DA]4 z2 | [DF]4 z2 | z2 A,4 | z2 A,2 z2 | [FA]4 z2 | [DB]4 z2 | [Dc]4 z2 | z2 A,4 | [EG]4 z2 | %9
 z2 z2 G2 | [DF]4 z2 | z2 A,4 | z2 A,4 | z2 B,4 | z2 A,2 E2 | z2 A,4 | D4 z2 | z2 A,4 | [^CE]4 z2 | %19
 z2 A,2 D2 | D4 z2 | z2 A,4 | [^CE]4 z2 | z2 A,2 [F,A,D]2 | [DF]4 z2 | [FA]4 z2 | [DG]4 z2 | %27
 [FA]4 z2 | [DF]4 z2 | [FA]4 z2 | [DG]4 z2 | [FA]4 z2 | z2 A,4 | [Gc]4 z2 | [FA]4 z2 | z2 A,4 | %36
 z2 A,4 | [EG]4 z2 | z2 A,2 E2 | x6 |] %40
V:3
 z2 A,4 | z2 A,4 | x6 | x6 | z2 A,4 | z2 B,4 | z2 B,4 | x6 | z2 A,4 | z2 B,4 | z2 A,4 | x6 | x6 | %13
 x6 | x6 | x6 | z2 A,4 | x6 | z2 A,4 | x6 | z2 A,4 | x6 | z2 A,4 | x6 | z2 A,4 | z2 A,4 | z2 A,4 | %27
 z2 A,4 | z2 A,4 | z2 A,4 | z2 A,4 | z2 B,4 | x6 | z2 A,4 | z2 B,4 | x6 | x6 | z2 A,4 | x6 | x6 |] %40
V:4
 D,2 z2 E2 | D,2 F,4 | D,2 z2 ^C2 | z2 G,4 | D,2 z2 E2 | D,2 z2 D2 | D,2 z2 D2 | ^C,2 G,4 | %8
 ^C,2 z2 F2 | D,2 z2 E2 | D,2 z2 E2 | D,2 z2 F2 | D,2 z2[K:treble] B2 | D,2 z2 A2 | %14
 D,2 F,2 [^C,G,A,]2 | D,2 F,4 | D,2 F,4 | D,2 z2 ^C2 | ^C,2 z2 ^C2 | ^C,2 G,2 [D,F,A,]2 | D,2 F,4 | %21
 D,2 z2 ^C2 | ^C,2 z2 ^C2 | ^C,2 G,2 D,2 | D,2 z2 E2 | D,2 z2 D2 | D,2 z2 G2 | D,2 z2 F2 | %28
 D,2 z2 E2 | D,2 z2 D2 | D,2 z2 G2 | D,2 z2 F2 | D,2 z2[K:treble] B2 | D,2 z2 G2 | D,2 z2 E2 | %35
 D,2 z2 E2 | ^C,2 z2[K:treble] B2 | ^C,2 z2 E2 | D,2 F,2 [^C,G,A,]2 | [D,F,A,]6 |] %40
V:5
 z2 F,4 | x6 | z2 F,4 | ^C,2 z2 A,2 | z2 F,4 | z2 G,4 | z2 G,4 | x6 | z2 G,4 | z2 G,4 | z2 F,4 | %11
 z2 F,4 | z2 F,4[K:treble] | z2 G,4 | x6 | x6 | x6 | z2 F,4 | z2 G,4 | x6 | x6 | z2 F,4 | z2 G,4 | %23
 x6 | z2 F,4 | z2 F,4 | z2 F,4 | z2 F,4 | z2 F,4 | z2 F,4 | z2 F,4 | z2 G,4 | z2 F,4[K:treble] | %33
 z2 F,4 | z2 G,4 | z2 F,4 | z2 G,4[K:treble] | z2 G,4 | x6 | x6 |] %40

